public/showcase/resources/images/home/icon-sigma.svg

<svg height="65" viewBox="0 0 65 65" width="65" xmlns="http://www.w3.org/2000/svg"><g fill="none" fill-rule="evenodd"><path d="m39.8478261 0h-14.6956522c-13.8478261 0-25.1521739 11.3043478-25.1521739 25.1521739v14.6956522c0 13.8478261 11.3043478 25.1521739 25.1521739 25.1521739h14.6956522c13.8478261 0 25.1521739-11.3043478 25.1521739-25.1521739v-14.6956522c0-13.8478261-11.3043478-25.1521739-25.1521739-25.1521739zm23.7391304 39.8478261c0 13.0706522-10.6684782 23.7391304-23.7391304 23.7391304h-14.6956522c-13.0706522 0-23.73913042-10.6684782-23.73913042-23.7391304v-14.6956522c0-13.0706522 10.66847822-23.73913042 23.73913042-23.73913042h14.6956522c13.0706522 0 23.7391304 10.66847822 23.7391304 23.73913042zm-4.2391304-.2826087c0 10.8804348-8.9021739 19.7826087-19.7826087 19.7826087h-14.1304348c-10.8804348 0-19.78260869-8.9021739-19.78260869-19.7826087v-14.1304348c0-10.8804348 8.90217389-19.78260869 19.78260869-19.78260869h14.1304348c10.8804348 0 19.7826087 8.90217389 19.7826087 19.78260869z" fill="#222" fill-rule="nonzero"/><path d="m45.2972719 23.8853119c-1.143938 0-2.3480652-.0301808-3.6124177-.0905433v.1207244c.5619344.5030206 1.0937573 1.096576 1.5954845 1.7806841.5017272.684108.9432405 1.4386276 1.3245531 2.2635815.3813127.8249538.6823445 1.7203171.9031044 2.6861167.22076.9657995.3311383 1.9919462.3311383 3.0784708 0 1.9919616-.3110662 3.85311-.9332079 5.583501-.6221417 1.7303909-1.5453059 3.2394302-2.7695202 4.527163s-2.7394077 2.3038192-4.5456256 3.0482897-3.903406 1.1167002-6.2916275 1.1167002c-2.2276687 0-4.2245129-.3671995-5.9905926-1.1016097-1.7660797-.7344101-3.2662215-1.7605567-4.5004704-3.0784708-1.2342489-1.317914-2.1774818-2.8973751-2.8297272-4.7384306-.6522453-1.8410554-.9783631-3.8681982-.9783631-6.0814889 0-3.1187279.6773215-5.8349985 2.0319849-8.1488934 1.3546635-2.3138948 3.3163873-4.0643803 5.8852305-5.251509.5619345-.2615707 1.1539637-.4929568 1.7761054-.694165.6221417-.2012083 1.3094976-.3672026 2.0620884-.4979879.7525908-.1307854 1.5854454-.231388 2.4985889-.3018109s1.9316344-.1056338 3.0555033-.1056338h14.6904986v5.8853119zm-12.4026341 0c-1.6858033 0-3.0605152.2615668-4.1241768.7847082-1.0636617.5231415-1.9216023 1.2172995-2.5738476 2.082495-.6522454.8651955-1.1188447 1.8611614-1.3998119 2.9879276s-.4214487 2.2937565-.4214487 3.501006c0 1.4285786.1856362 2.6961715.5569144 3.8028169.3712781 1.1066454.8729977 2.0372196 1.505174 2.7917505s1.3847558 1.3279658 2.2577611 1.7203219 1.8011866.5885312 2.7845719.5885312c2.1674615 0 3.8733083-.7645799 5.1175917-2.2937626 1.2442835-1.5291827 1.8664158-3.6921389 1.8664158-6.4889336 0-1.1267662-.1254299-2.1629731-.3762935-3.1086519-.2508636-.9456787-.5819985-1.8108612-.9934148-2.5955734s-.8780156-1.4889305-1.3998119-2.1126761c-.5217963-.6237455-1.0435847-1.1770599-1.565381-1.6599597z" fill="#fff"/></g></svg>

<?xml version="1.0" encoding="UTF-8"?>
<svg width="65px" height="65px" viewBox="0 0 65 65" version="1.1" xmlns="http://www.w3.org/2000/svg" xmlns:xlink="http://www.w3.org/1999/xlink">
    <!-- Generator: Sketch 50.2 (55047) - http://www.bohemiancoding.com/sketch -->
    <title>icon-sigma</title>
    <desc>Created with Sketch.</desc>
    <defs></defs>
    <g id="Page-1" stroke="none" stroke-width="1" fill="none" fill-rule="evenodd">
        <g id="icon-sigma">
            <path d="M39.8478261,0 L25.1521739,0 C11.3043478,0 0,11.3043478 0,25.1521739 L0,39.8478261 C0,53.6956522 11.3043478,65 25.1521739,65 L39.8478261,65 C53.6956522,65 65,53.6956522 65,39.8478261 L65,25.1521739 C65,11.3043478 53.6956522,0 39.8478261,0 Z M63.5869565,39.8478261 C63.5869565,52.9184783 52.9184783,63.5869565 39.8478261,63.5869565 L25.1521739,63.5869565 C12.0815217,63.5869565 1.41304348,52.9184783 1.41304348,39.8478261 L1.41304348,25.1521739 C1.41304348,12.0815217 12.0815217,1.41304348 25.1521739,1.41304348 L39.8478261,1.41304348 C52.9184783,1.41304348 63.5869565,12.0815217 63.5869565,25.1521739 L63.5869565,39.8478261 Z M59.3478261,39.5652174 C59.3478261,50.4456522 50.4456522,59.3478261 39.5652174,59.3478261 L25.4347826,59.3478261 C14.5543478,59.3478261 5.65217391,50.4456522 5.65217391,39.5652174 L5.65217391,25.4347826 C5.65217391,14.5543478 14.5543478,5.65217391 25.4347826,5.65217391 L39.5652174,5.65217391 C50.4456522,5.65217391 59.3478261,14.5543478 59.3478261,25.4347826 L59.3478261,39.5652174 Z" id="Shape" fill="#222222" fill-rule="nonzero"></path>
            <path d="M45.2972719,23.8853119 C44.1533339,23.8853119 42.9492067,23.8551311 41.6848542,23.7947686 L41.6848542,23.915493 C42.2467886,24.4185136 42.7786115,25.012069 43.2803387,25.6961771 C43.7820659,26.3802851 44.2235792,27.1348047 44.6048918,27.9597586 C44.9862045,28.7847124 45.2872363,29.6800757 45.5079962,30.6458753 C45.7287562,31.6116748 45.8391345,32.6378215 45.8391345,33.7243461 C45.8391345,35.7163077 45.5280683,37.5774561 44.9059266,39.3078471 C44.2837849,41.038238 43.3606207,42.5472773 42.1364064,43.8350101 C40.9121921,45.1227429 39.3969987,46.1388293 37.5907808,46.8832998 C35.7845629,47.6277703 33.6873748,48 31.2991533,48 C29.0714846,48 27.0746404,47.6328005 25.3085607,46.8983903 C23.542481,46.1639802 22.0423392,45.1378336 20.8080903,43.8199195 C19.5738414,42.5020055 18.6306085,40.9225444 17.9783631,39.0814889 C17.3261178,37.2404335 17,35.2132907 17,33 C17,29.8812721 17.6773215,27.1650015 19.0319849,24.8511066 C20.3866484,22.5372118 22.3483722,20.7867263 24.9172154,19.5995976 C25.4791499,19.3380269 26.0711791,19.1066408 26.6933208,18.9054326 C27.3154625,18.7042243 28.0028184,18.53823 28.7554092,18.4074447 C29.508,18.2766593 30.3408546,18.1760567 31.2539981,18.1056338 C32.1671416,18.0352109 33.1856325,18 34.3095014,18 L49,18 L49,23.8853119 L45.2972719,23.8853119 Z M32.8946378,23.8853119 C31.2088345,23.8853119 29.8341226,24.1468787 28.770461,24.6700201 C27.7067993,25.1931616 26.8488587,25.8873196 26.1966134,26.7525151 C25.544368,27.6177106 25.0777687,28.6136765 24.7968015,29.7404427 C24.5158343,30.8672089 24.3753528,32.0341992 24.3753528,33.2414487 C24.3753528,34.6700273 24.560989,35.9376202 24.9322672,37.0442656 C25.3035453,38.150911 25.8052649,39.0814852 26.4374412,39.8360161 C27.0696175,40.590547 27.822197,41.1639819 28.6952023,41.556338 C29.5682076,41.9486941 30.4963889,42.1448692 31.4797742,42.1448692 C33.6472357,42.1448692 35.3530825,41.3802893 36.5973659,39.8511066 C37.8416494,38.3219239 38.4637817,36.1589677 38.4637817,33.362173 C38.4637817,32.2354068 38.3383518,31.1991999 38.0874882,30.2535211 C37.8366246,29.3078424 37.5054897,28.4426599 37.0940734,27.6579477 C36.6826571,26.8732355 36.2160578,26.1690172 35.6942615,25.5452716 C35.1724652,24.9215261 34.6506768,24.3682117 34.1288805,23.8853119 L32.8946378,23.8853119 Z" id="σ" fill="#FFFFFF"></path>
        </g>
    </g>
</svg>
